X:86
T:Tom's Gone To Hilo
M:2/4
L:1/16
Q:1/4=3D100
K:G
DE|\
G6 B2|(AG)E2 G3B|(AG)E4 B2|(AG E4)d2|
c2B2 A3F|G2E2 D4|G4 B3G|A2G2||
